Papirus/32x32/apps/pulseeffects.svg

<svg width="32" height="32" version="1" xmlns="http://www.w3.org/2000/svg">
 <rect transform="matrix(0,-1,-1,0,0,0)" x="-31" y="-30" width="28" height="28" rx="1.5" ry="1.5" style="opacity:.2"/>
 <rect transform="matrix(0,-1,-1,0,0,0)" x="-30" y="-30" width="28" height="28" rx="1.5" ry="1.5" style="fill:#4f4f4f"/>
 <path d="m3.5 2c-0.831 0-1.5 0.669-1.5 1.5v1c0-0.831 0.669-1.5 1.5-1.5h25c0.831 0 1.5 0.669 1.5 1.5v-1c0-0.831-0.669-1.5-1.5-1.5h-25z" fill="#fff" opacity=".1"/>
 <path d="m7.5 8c-0.831 0-1.5 0.669-1.5 1.5v15c0 0.831 0.669 1.5 1.5 1.5s1.5-0.669 1.5-1.5v-15c0-0.831-0.669-1.5-1.5-1.5z" opacity=".3"/>
 <path d="m7.5 14c-0.831 0-1.5 0.669-1.5 1.5v9c0 0.831 0.669 1.5 1.5 1.5s1.5-0.669 1.5-1.5v-9c0-0.831-0.669-1.5-1.5-1.5z" style="fill:#00ab43"/>
 <path d="m10 14.5a2.5 2.5 0 0 1-2.5 2.5 2.5 2.5 0 0 1-2.5-2.5 2.5 2.5 0 0 1 2.5-2.5 2.5 2.5 0 0 1 2.5 2.5z" opacity=".2"/>
 <path d="m10 13.5a2.5 2.5 0 0 1-2.5 2.5 2.5 2.5 0 0 1-2.5-2.5 2.5 2.5 0 0 1 2.5-2.5 2.5 2.5 0 0 1 2.5 2.5z" style="fill:#828282"/>
 <path d="m23.5 8c-0.831 0-1.5 0.669-1.5 1.5v15c0 0.831 0.669 1.5 1.5 1.5s1.5-0.669 1.5-1.5v-15c0-0.831-0.669-1.5-1.5-1.5z" opacity=".3"/>
 <path d="m23.5 17c-0.831 0-1.5 0.669-1.5 1.5v6c0 0.831 0.669 1.5 1.5 1.5s1.5-0.669 1.5-1.5v-6c0-0.831-0.669-1.5-1.5-1.5z" style="fill:#00ab43"/>
 <path d="m26 17.5a2.5 2.5 0 0 1-2.5 2.5 2.5 2.5 0 0 1-2.5-2.5 2.5 2.5 0 0 1 2.5-2.5 2.5 2.5 0 0 1 2.5 2.5z" opacity=".2"/>
 <path d="m26 16.5a2.5 2.5 0 0 1-2.5 2.5 2.5 2.5 0 0 1-2.5-2.5 2.5 2.5 0 0 1 2.5-2.5 2.5 2.5 0 0 1 2.5 2.5z" style="fill:#828282"/>
 <path d="m15.5 8c-0.831 0-1.5 0.669-1.5 1.5v15c0 0.831 0.669 1.5 1.5 1.5s1.5-0.669 1.5-1.5v-15c0-0.831-0.669-1.5-1.5-1.5z" opacity=".3"/>
 <path d="m15.5 21c-0.831 0-1.5 0.669-1.5 1.5v2c0 0.831 0.669 1.5 1.5 1.5s1.5-0.669 1.5-1.5v-2c0-0.831-0.669-1.5-1.5-1.5z" style="fill:#00ab43"/>
 <path d="m18 21.5a2.5 2.5 0 0 1-2.5 2.5 2.5 2.5 0 0 1-2.5-2.5 2.5 2.5 0 0 1 2.5-2.5 2.5 2.5 0 0 1 2.5 2.5z" opacity=".2"/>
 <path d="m18 20.5a2.5 2.5 0 0 1-2.5 2.5 2.5 2.5 0 0 1-2.5-2.5 2.5 2.5 0 0 1 2.5-2.5 2.5 2.5 0 0 1 2.5 2.5z" style="fill:#828282"/>
</svg>

<svg xmlns="http://www.w3.org/2000/svg" width="32" height="32" version="1">
 <rect style="opacity:0.2" width="28" height="28" x="-31" y="-30" rx="1.5" ry="1.5" transform="matrix(0,-1,-1,0,0,0)"/>
 <rect width="28" height="28" x="-30" y="-30" rx="1.5" ry="1.5" transform="matrix(0,-1,-1,0,0,0)" style="fill:#5e5e5e"/>
 <path fill="#fff" opacity=".1" d="m3.5 2c-0.831 0-1.5 0.669-1.5 1.5v1c0-0.831 0.669-1.5 1.5-1.5h25c0.831 0 1.5 0.669 1.5 1.5v-1c0-0.831-0.669-1.5-1.5-1.5h-25z"/>
 <path opacity=".3" d="m7.5 8c-0.831 0-1.5 0.669-1.5 1.5v15c0 0.831 0.669 1.5 1.5 1.5s1.5-0.669 1.5-1.5v-15c0-0.831-0.669-1.5-1.5-1.5z"/>
 <path d="M 7.5,14 C 6.669,14 6,14.669 6,15.5 V 24.5 C 6,25.331 6.669,26 7.5,26 8.331,26 9,25.331 9,24.5 V 15.5 C 9,14.669 8.331,14 7.5,14 Z" style="fill:#dca200"/>
 <path opacity=".2" d="m10 14.5a2.5 2.5 0 0 1 -2.5 2.5 2.5 2.5 0 0 1 -2.5 -2.5 2.5 2.5 0 0 1 2.5 -2.5 2.5 2.5 0 0 1 2.5 2.5z"/>
 <path d="m10 13.5a2.5 2.5 0 0 1 -2.5 2.5 2.5 2.5 0 0 1 -2.5 -2.5 2.5 2.5 0 0 1 2.5 -2.5 2.5 2.5 0 0 1 2.5 2.5z" style="fill:#fec006"/>
 <path opacity=".3" d="m23.5 8c-0.831 0-1.5 0.669-1.5 1.5v15c0 0.831 0.669 1.5 1.5 1.5s1.5-0.669 1.5-1.5v-15c0-0.831-0.669-1.5-1.5-1.5z"/>
 <path d="M 23.5,17 C 22.669,17 22,17.669 22,18.5 V 24.5 C 22,25.331 22.669,26 23.5,26 24.331,26 25,25.331 25,24.5 V 18.5 C 25,17.669 24.331,17 23.5,17 Z" style="fill:#dca200"/>
 <path opacity=".2" d="m26 17.5a2.5 2.5 0 0 1 -2.5 2.5 2.5 2.5 0 0 1 -2.5 -2.5 2.5 2.5 0 0 1 2.5 -2.5 2.5 2.5 0 0 1 2.5 2.5z"/>
 <path d="m26 16.5a2.5 2.5 0 0 1 -2.5 2.5 2.5 2.5 0 0 1 -2.5 -2.5 2.5 2.5 0 0 1 2.5 -2.5 2.5 2.5 0 0 1 2.5 2.5z" style="fill:#fec006"/>
 <path opacity=".3" d="m15.5 8c-0.831 0-1.5 0.669-1.5 1.5v15c0 0.831 0.669 1.5 1.5 1.5s1.5-0.669 1.5-1.5v-15c0-0.831-0.669-1.5-1.5-1.5z"/>
 <path d="M 15.5,21 C 14.669,21 14,21.669 14,22.5 V 24.5 C 14,25.331 14.669,26 15.5,26 16.331,26 17,25.331 17,24.5 V 22.5 C 17,21.669 16.331,21 15.5,21 Z" style="fill:#dca200"/>
 <path opacity=".2" d="m18 21.5a2.5 2.5 0 0 1 -2.5 2.5 2.5 2.5 0 0 1 -2.5 -2.5 2.5 2.5 0 0 1 2.5 -2.5 2.5 2.5 0 0 1 2.5 2.5z"/>
 <path d="m18 20.5a2.5 2.5 0 0 1 -2.5 2.5 2.5 2.5 0 0 1 -2.5 -2.5 2.5 2.5 0 0 1 2.5 -2.5 2.5 2.5 0 0 1 2.5 2.5z" style="fill:#fec006"/>
</svg>
